X:1
T:Title
%%score ( 1 2 ) ( 3 4 )
L:1/8
Q:1/4=105
M:4/4
K:A
V:1 treble nm="Grand Piano, Soprano"
V:2 treble 
V:3 bass nm="Choir Pad, The Joy Awaiting, Frazer"
V:4 bass 
V:1
 [CA][CA] [CG]2 [CF]2 [CE]2 | [CF]2 [DG]2 [DG]4 | [DB][CA] [DG]2 [DB]2 [DF]2 | [DG]2 [CE]6 | %4
w: By~Robert~Harkness * * * *||||
 [CA][CA] [CG]2 [CF]2 [CE]2 | [CF]2 [DG]2 [DG]4 | z2 B4 B2- | B2 B6 | [CE][EA] [Ec]4 [DB]2- | %9
w: |||||
 [DB]2 [CA]6 | z2 e4 d2- | d2 z2 z4 | [EA][EA] [Fd]2 [Ad]2 [Gc]2 | [FA]2 [Ae]2 [Ec]2 [EA]2 | %14
w: |||||
 [Fd]2 [Ec]4 [DB]2- | [DB]2 [CA]6- | [CA]2 z2 z4 |] %17
w: |||
V:2
 x8 | x8 | x8 | x8 | x8 | x8 | [B,E][EG] E2 ^D2 C2 | ^D2 E4 =D2 | x8 | x8 | [EA][Ac] A2 G2 F2 | %11
 G2 [Ac]6 | x8 | x8 | x8 | x8 | x8 |] %17
V:3
 [A,,E,][A,,E,] [A,,E,]2 [A,,A,]2 [A,,A,]2 | [A,,F,]2 [B,,E,]2 [B,,E,]4 | %2
 [E,G,][E,A,] [E,B,]2 [E,G,]2 [E,A,]2 | [E,B,]2 [A,,A,]6 | %4
 [A,,E,][A,,E,] [A,,E,]2 [A,,A,]2 [A,,A,]2 | [C,^A,]2 [E,B,]2 [E,B,]4 | [E,G,][E,B,] G,2 F,2 E,2 | %7
 F,2 [E,G,]6 | [A,,A,][C,A,] [E,A,]4 [E,G,]2- | [E,G,]2 [A,,A,]6 | [A,C][A,E] C2 B,2 A,2 | %11
 B,2 [A,E]6 | [=G,C][G,C] [F,D]2 [F,D]2 [E,E]2 | [E,D]2 [A,C]2 A,2 [F,C]2 | %14
 [D,A,]2 [E,A,]4 [E,G,]2- | [E,G,]2 [A,,A,]6- | [A,,A,]2 z2 z4 |] %17
V:4
 x8 | x8 | x8 | x8 | x8 | x8 | z2 B,,4 B,,2- | B,,2 z2 z4 | x8 | x8 | z2 E,4 E,2- | E,2 z2 z4 | %12
 x8 | x8 | x8 | x8 | x8 |] %17

